Origami/64x64/apps/bomi.svg

<svg width="64" height="64" version="1" xmlns="http://www.w3.org/2000/svg">
 <path d="m4 56v2c0 1.662 1.338 3 3 3h50c1.662 0 3-1.338 3-3v-2c0 1.662-1.338 3-3 3h-50c-1.662 0-3-1.338-3-3z" style="opacity:.2"/>
 <rect transform="matrix(0,-1,-1,0,0,0)" x="-60" y="-60" width="56" height="56" rx="3" ry="3" style="fill:#e75177"/>
 <path d="m7 4c-1.662 0-3 1.338-3 3v1c0-1.662 1.338-3 3-3h50c1.662 0 3 1.338 3 3v-1c0-1.662-1.338-3-3-3h-50z" style="fill:#ffffff;opacity:.1"/>
 <path d="m32 14.9992a18 18 0 0 0 -6 1.0508v22.95c0 1.108-0.892 2-2 2s-2-0.892-2-2v-20.95a18 18 0 0 0 -8 14.95 18 18 0 0 0 18 18 18 18 0 0 0 18 -18 18 18 0 0 0 -18 -18zm-1.114 10a0.87504 0.90146 0 0 1 0.418 0.118l6.126 3.546 6.124 3.55a0.87504 0.90146 0 0 1 0 1.572l-6.124 3.55-6.126 3.546a0.87504 0.90146 0 0 1 -1.304 -0.784v-14.196a0.87504 0.90146 0 0 1 0.886 -0.902z" style="opacity:.2"/>
 <path d="m32 14a18 18 0 0 0 -6 1.0508v22.95c0 1.108-0.892 2-2 2s-2-0.892-2-2v-20.95a18 18 0 0 0 -8 14.95 18 18 0 0 0 18 18 18 18 0 0 0 18 -18 18 18 0 0 0 -18 -18zm-1.114 10a0.87504 0.90146 0 0 1 0.418 0.118l6.126 3.546 6.124 3.55a0.87504 0.90146 0 0 1 0 1.572l-6.124 3.55-6.126 3.546a0.87504 0.90146 0 0 1 -1.304 -0.784v-14.196a0.87504 0.90146 0 0 1 0.886 -0.902z" style="fill:#ffffff"/>
</svg>

<svg xmlns="http://www.w3.org/2000/svg" width="64" height="64" version="1">
 <path style="opacity:0.2" d="m 4,56 0,2 c 0,1.662 1.338,3 3,3 l 50,0 c 1.662,0 3,-1.338 3,-3 l 0,-2 c 0,1.662 -1.338,3 -3,3 L 7,59 C 5.338,59 4,57.662 4,56 Z"/>
 <rect style="fill:#e75177" width="56" height="56" x="-60" y="-60" rx="3" ry="3" transform="matrix(0,-1,-1,0,0,0)"/>
 <path style="opacity:0.1;fill:#ffffff" d="M 7 4 C 5.338 4 4 5.338 4 7 L 4 8 C 4 6.338 5.338 5 7 5 L 57 5 C 58.662 5 60 6.338 60 8 L 60 7 C 60 5.338 58.662 4 57 4 L 7 4 z"/>
 <path style="opacity:0.2" d="M 32,14.9992 A 18,18 0 0 0 26,16.05 L 26,39 c 0,1.108 -0.892,2 -2,2 -1.108,0 -2,-0.892 -2,-2 L 22,18.05 A 18,18 0 0 0 14,33 18,18 0 0 0 32,51 18,18 0 0 0 50,33 18,18 0 0 0 32,15 Z m -1.114,10 a 0.87504,0.90146 0 0 1 0.418,0.118 l 6.126,3.546 6.124,3.55 a 0.87504,0.90146 0 0 1 0,1.572 l -6.124,3.55 -6.126,3.546 A 0.87504,0.90146 0 0 1 30,40.0972 l 0,-14.196 a 0.87504,0.90146 0 0 1 0.886,-0.902 z"/>
 <path style="fill:#ffffff" d="m 32,14 a 18,18 0 0 0 -6,1.0508 l 0,22.95 c 0,1.108 -0.892,2 -2,2 -1.108,0 -2,-0.892 -2,-2 l 0,-20.95 a 18,18 0 0 0 -8,14.95 18,18 0 0 0 18,18 18,18 0 0 0 18,-18 18,18 0 0 0 -18,-18 z m -1.114,10 a 0.87504,0.90146 0 0 1 0.418,0.118 l 6.126,3.546 6.124,3.55 a 0.87504,0.90146 0 0 1 0,1.572 l -6.124,3.55 -6.126,3.546 A 0.87504,0.90146 0 0 1 30,39.098 L 30,24.902 A 0.87504,0.90146 0 0 1 30.886,24 Z"/>
</svg>
